X: 4937
T: Breaking Up Christmas
R: reel
M: 4/4
K: Amajor
|:efed c2 cc|BABA c2 cc|efed c2 cc|BcBA F2 FF|
efed c2 cc|BABA c2 cc|e2 fe afed|cABc A2 AA:|
|:E2 FE A2 AA|BABA c2 cc|E2 FE A2 AA|BcBA F2 FF|
E2 FE A2 AA|BABA c2 cc|e2 fe afed|cABc A2 AA:|

